X:81
T:Laddie I esteem you
T:A' Ghille dhuinn is toigh leam thu
R:Slow Air
S:Simon Fraser Collection
N:No.66
O:Scottish
M:C
L:1/8
Q:1/4=140
K:G Minor
D|G>B c2 A>G F2|G>B f2 d3f|BB c2 A>F d2|G>^FD>F G2G:|
f|d>Bf>B AF F2|f<d d>^f g2 gb|d>Bf>B A<F d2|G>^FD>F G2 GA|
GGG>A G>F F2|G>AB>c d2 d>B|c>BA>G F>F d2|B>^FD>F G2G||

